assets/images/icons/dribble-big.svg

<svg width="25" height="24" viewBox="0 0 25 24" fill="none" xmlns="http://www.w3.org/2000/svg">
<g clip-path="url(#clip0_3_817)">
<path fill-rule="evenodd" clip-rule="evenodd" d="M12.2051 23.9991C5.58803 23.9991 0.205078 18.6158 0.205078 11.9999C0.205078 5.38526 5.58803 0.00195312 12.2051 0.00195312C18.8221 0.00195312 24.2051 5.38526 24.2051 11.9999C24.2051 18.6158 18.8221 23.9991 12.2051 23.9991ZM21.7954 13.5568C21.4634 13.4534 18.7889 12.6543 15.7454 13.1412C17.0159 16.6317 17.5331 19.4765 17.6323 20.0661C19.8112 18.5928 21.363 16.2594 21.7954 13.5568ZM15.9998 20.956C15.8545 20.104 15.2906 17.1335 13.9268 13.5909C13.9063 13.598 13.8849 13.6043 13.8628 13.6122C8.38498 15.5197 6.41828 19.3208 6.24325 19.678C7.88949 20.9615 9.95978 21.7277 12.2051 21.7277C13.5502 21.7277 14.8333 21.4518 15.9998 20.956ZM4.989 18.5091C5.20866 18.1321 7.87484 13.7189 12.884 12.0995C13.0108 12.0584 13.1384 12.0205 13.2665 11.9849C13.023 11.4321 12.7579 10.8812 12.479 10.3359C7.62871 11.7877 2.92191 11.7277 2.49624 11.7182C2.49345 11.817 2.49193 11.9162 2.49193 12.015C2.49193 14.51 3.43753 16.7874 4.989 18.5091ZM2.69698 10.0261C3.13173 10.0316 7.13317 10.0482 11.6768 8.84295C10.0677 5.98156 8.33169 3.57616 8.07522 3.22609C5.35804 4.50715 3.32649 7.01214 2.69698 10.0261ZM9.92895 2.57367C10.1976 2.93286 11.9616 5.33471 13.5534 8.25928C17.0078 6.96321 18.4692 4.9996 18.6435 4.7514C16.9285 3.22847 14.6728 2.30417 12.205 2.30417C11.4211 2.30417 10.6592 2.39741 9.92895 2.57367ZM19.7235 5.8733C19.5192 6.15076 17.8907 8.23717 14.2998 9.70204C14.5259 10.166 14.7423 10.637 14.9447 11.1097C15.0155 11.278 15.0854 11.4448 15.1534 11.6107C18.3854 11.2045 21.5966 11.8553 21.9178 11.9241C21.8961 9.63172 21.0769 7.52664 19.7235 5.8733Z" fill="white"/>
</g>
<defs>
<clipPath id="clip0_3_817">
<rect width="24" height="24" fill="white" transform="translate(0.205078)"/>
</clipPath>
</defs>
</svg>

<svg width="25" height="24" fill="none" xmlns="http://www.w3.org/2000/svg"><g clip-path="url(#a)"><path fill-rule="evenodd" clip-rule="evenodd" d="M12.205 24c-6.617 0-12-5.384-12-12 0-6.615 5.383-11.998 12-11.998s12 5.383 12 11.998c0 6.616-5.383 12-12 12zm9.59-10.443c-.332-.104-3.006-.903-6.05-.416 1.27 3.49 1.788 6.336 1.887 6.925a9.726 9.726 0 0 0 4.163-6.51zM16 20.956c-.146-.852-.71-3.822-2.073-7.365l-.064.021c-5.478 1.908-7.445 5.709-7.62 6.066a9.667 9.667 0 0 0 5.962 2.05A9.681 9.681 0 0 0 16 20.956zM4.989 18.509c.22-.377 2.886-4.79 7.895-6.41.127-.04.254-.079.383-.114a31.65 31.65 0 0 0-.788-1.65c-4.85 1.453-9.557 1.393-9.983 1.383a9.672 9.672 0 0 0 2.493 6.79zm-2.292-8.483c.435.006 4.436.022 8.98-1.183a61.479 61.479 0 0 0-3.602-5.617 9.746 9.746 0 0 0-5.378 6.8zm7.232-7.452c.269.359 2.033 2.76 3.624 5.685 3.455-1.296 4.916-3.26 5.09-3.508a9.666 9.666 0 0 0-6.438-2.447c-.784 0-1.546.093-2.276.27zm9.795 3.3c-.205.277-1.833 2.363-5.424 3.828a31.733 31.733 0 0 1 .853 1.909c3.232-.407 6.444.244 6.765.313a9.668 9.668 0 0 0-2.194-6.05z" fill="#fff"/></g><defs><clipPath id="a"><path fill="#fff" transform="translate(.205)" d="M0 0h24v24H0z"/></clipPath></defs></svg>
